images/header/logo.svg

<svg width="264" height="72" viewBox="0 0 264 72" fill="none" xmlns="http://www.w3.org/2000/svg">
<g clip-path="url(#clip0_9127_17471)">
<g filter="url(#filter0_di_9127_17471)">
<path fill-rule="evenodd" clip-rule="evenodd" d="M71.2578 30.7795H95.285L96.4561 22.9511L72.5893 21.8887L71.2578 30.7795ZM124.233 23.676L101.52 23.084C101.201 23.3332 100.876 23.6433 100.544 24.0125C99.9751 24.6465 99.4359 25.4738 98.9313 26.4895C98.4235 27.5084 98.0164 28.778 97.7036 30.3017L97.625 30.7784H123.171L124.235 23.676H124.233ZM127.915 23.7715L148.357 24.3058L147.386 30.7788H126.867L127.915 23.7715ZM176.131 25.029L176.13 25.029L176.131 25.0275V25.029ZM176.13 25.029L175.269 30.7776H149.727L149.805 30.3009C150.01 29.349 150.322 28.3956 150.737 27.4422C151.152 26.4888 151.621 25.6335 152.141 24.8686C152.248 24.7128 152.358 24.5601 152.468 24.4121L176.13 25.029ZM179.765 25.125L203.896 25.7544L203.144 30.7786H177.602L177.68 30.3018C177.833 29.2861 178.133 28.2844 178.573 27.2998C178.931 26.5022 179.328 25.7762 179.765 25.125ZM227.479 26.3671L206.229 25.8125L205.484 30.7759H229.043C228.619 29.1292 228.095 27.657 227.479 26.3655V26.3671ZM256.464 27.1272C258.402 27.1787 259.973 28.7287 259.998 30.6496V30.6854V30.7805H234.336L234.968 26.5664L256.464 27.1272Z" fill="white"/>
</g>
<g filter="url(#filter1_di_9127_17471)">
<path fill-rule="evenodd" clip-rule="evenodd" d="M194.968 48.8913L196.525 38.3102V38.3086H202.015L199.525 55.182C199.393 55.9438 199.122 56.7851 198.707 57.7073C198.289 58.6281 197.811 59.4709 197.264 60.2327C196.72 60.9976 196.161 61.6488 195.59 62.1878C195.019 62.73 194.513 62.9979 194.072 62.9979H172.812L176.472 38.3086H182.001L179.625 54.3236H191.852C192.319 54.0697 192.716 53.8017 193.039 53.5135C193.363 53.2284 193.636 52.881 193.856 52.4666C194.079 52.0522 194.274 51.5584 194.442 50.9882C194.611 50.418 194.787 49.7185 194.968 48.8913ZM86.6348 38.3105H81.144L78.7687 54.4222H71.214L69.9297 63.0014H90.4515L91.7357 54.4222H84.2596L86.6348 38.3105ZM121.042 39.264C120.744 38.6938 120.427 38.3744 120.087 38.3105H108.056L106.771 46.9864H115.144C115.739 46.9864 116.063 47.4319 116.115 48.3215C116.169 49.2095 116.142 50.0367 116.037 50.7985C115.985 50.9902 115.908 51.2924 115.804 51.7052C115.699 52.1165 115.57 52.5138 115.414 52.8954C115.258 53.2771 115.065 53.6121 114.831 53.8972C114.597 54.1823 114.311 54.3256 113.974 54.3256H101.903C101.149 53.7554 100.663 53.1494 100.443 52.5138C100.221 51.8797 100.177 50.9263 100.306 49.655L101.98 38.3121H96.4909L94.5826 51.2768C94.427 52.9951 94.3358 54.5016 94.3091 55.8056C94.2839 57.1095 94.3672 58.2203 94.5621 59.141C94.7571 60.0633 95.0746 60.8422 95.5163 61.4778C95.958 62.1119 96.5538 62.6229 97.3083 63.0014H115.063C115.686 63.0014 116.327 62.668 116.989 61.9997C117.651 61.3345 118.28 60.4278 118.879 59.2828C119.476 58.1377 120.014 56.8369 120.495 55.3756C120.976 53.9127 121.332 52.3564 121.567 50.7035L121.606 50.5119C121.865 48.605 121.994 46.9225 121.994 45.4612C121.994 43.9999 121.909 42.7443 121.741 41.6943C121.573 40.6474 121.34 39.8357 121.04 39.2624L121.042 39.264ZM133.247 38.3105H138.736L136.361 54.4222H143.836L142.551 63.0014H122.031L123.317 54.4222H130.872L133.247 38.3105ZM154.078 38.3105H148.589L144.93 63.0014H170.433L171.717 54.3256H151.703L154.078 38.3105ZM226.316 46.5081H229.666L230.133 43.4578C230.16 43.0122 230.18 42.5994 230.191 42.2193C230.204 41.8376 230.21 41.4263 230.21 40.9808C230.21 40.5352 230.202 40.0912 230.191 39.6456C230.179 39.2001 230.16 38.7561 230.133 38.3105H212.378L211.094 46.9864H218.685C219.153 47.1141 219.626 47.7653 220.106 48.9415C220.587 50.1177 220.931 51.3734 221.138 52.7054C221.244 53.2164 221.302 54.2944 221.315 55.9473C221.327 57.6002 221.256 59.9511 221.099 63.0014H227.214C227.55 60.7129 227.621 58.0442 227.426 54.9939C227.231 51.9436 226.862 49.116 226.318 46.5097L226.316 46.5081ZM206.18 63.0014H200.688L204.349 38.3105H209.838L206.18 63.0014ZM229.547 63.0014H235.036L238.699 38.3105H233.208L229.547 63.0014ZM255.203 63.0014H249.711L253.374 38.3105H258.863L255.203 63.0014Z" fill="white"/>
</g>
<g filter="url(#filter2_di_9127_17471)">
<g filter="url(#filter3_d_9127_17471)">
<path d="M75.5262 38.308H70.037L69.5261 40.5747C69.3752 41.2415 68.8769 41.7758 68.2182 41.9752L61.8456 43.9148C59.9451 44.4928 58.5508 46.1052 58.2647 48.0541L58.0996 49.1758C57.7365 50.4485 57.3262 51.4954 56.8719 52.3227C56.4176 53.1484 55.8266 53.8151 55.1003 54.323H48.8723L51.2475 36.9105L47.9228 34.1889L60.9448 22.416L39.7031 33.9116L45.7583 38.308L42.0972 62.9973H56.8153C57.3089 62.9973 57.8481 62.7433 58.4313 62.2355C59.0176 61.7276 59.5882 61.092 60.1447 60.3286C60.7043 59.5637 61.2089 58.7084 61.6632 57.755C62.1175 56.8016 62.4618 55.8482 62.696 54.8963L63.0418 52.5626C63.5936 48.8361 64.958 49.0838 69.2887 47.5057C73.6194 45.9276 73.937 46.3404 75.5294 38.308H75.5262Z" fill="#FC83D4"/>
</g>
<path d="M27.3549 25.4074L44.4303 15.9523L42.145 13.1641L55.493 15.8806L56.1447 12.4537L61.7854 20.8788L67.938 17.1088L67.2268 21.4651L71.5021 21.7327L74.5 7.5L63.4347 15.0196L54.7027 2L52.3086 11.1274L32.4102 7.16026L37.7971 14.4712L13.4847 27.3072L24.6226 29.2568L6.37993 46.1304H14.9189L4 63H30.0678L31.1159 55.9502H14.9189L23.8323 40.9663H20.2423L35.114 26.9948L27.3549 25.4074Z" fill="#FC83D4"/>
</g>
</g>
<defs>
<filter id="filter0_di_9127_17471" x="65.2578" y="15.8887" width="200.742" height="20.8926" filterUnits="userSpaceOnUse" color-interpolation-filters="sRGB">
<feFlood flood-opacity="0" result="BackgroundImageFix"/>
<feColorMatrix in="SourceAlpha" type="matrix" values="0 0 0 0 0 0 0 0 0 0 0 0 0 0 0 0 0 0 127 0" result="hardAlpha"/>
<feOffset/>
<feGaussianBlur stdDeviation="3"/>
<feComposite in2="hardAlpha" operator="out"/>
<feColorMatrix type="matrix" values="0 0 0 0 0.147167 0 0 0 0 0.00833333 0 0 0 0 1 0 0 0 1 0"/>
<feBlend mode="normal" in2="BackgroundImageFix" result="effect1_dropShadow_9127_17471"/>
<feBlend mode="normal" in="SourceGraphic" in2="effect1_dropShadow_9127_17471" result="shape"/>
<feColorMatrix in="SourceAlpha" type="matrix" values="0 0 0 0 0 0 0 0 0 0 0 0 0 0 0 0 0 0 127 0" result="hardAlpha"/>
<feOffset dy="2"/>
<feGaussianBlur stdDeviation="1.5"/>
<feComposite in2="hardAlpha" operator="arithmetic" k2="-1" k3="1"/>
<feColorMatrix type="matrix" values="0 0 0 0 0.196241 0 0 0 0 0.182049 0 0 0 0 0.891667 0 0 0 1 0"/>
<feBlend mode="normal" in2="shape" result="effect2_innerShadow_9127_17471"/>
</filter>
<filter id="filter1_di_9127_17471" x="63.9297" y="32.3086" width="200.93" height="36.6934" filterUnits="userSpaceOnUse" color-interpolation-filters="sRGB">
<feFlood flood-opacity="0" result="BackgroundImageFix"/>
<feColorMatrix in="SourceAlpha" type="matrix" values="0 0 0 0 0 0 0 0 0 0 0 0 0 0 0 0 0 0 127 0" result="hardAlpha"/>
<feOffset/>
<feGaussianBlur stdDeviation="3"/>
<feComposite in2="hardAlpha" operator="out"/>
<feColorMatrix type="matrix" values="0 0 0 0 0.147167 0 0 0 0 0.00833333 0 0 0 0 1 0 0 0 1 0"/>
<feBlend mode="normal" in2="BackgroundImageFix" result="effect1_dropShadow_9127_17471"/>
<feBlend mode="normal" in="SourceGraphic" in2="effect1_dropShadow_9127_17471" result="shape"/>
<feColorMatrix in="SourceAlpha" type="matrix" values="0 0 0 0 0 0 0 0 0 0 0 0 0 0 0 0 0 0 127 0" result="hardAlpha"/>
<feOffset dy="2"/>
<feGaussianBlur stdDeviation="1.5"/>
<feComposite in2="hardAlpha" operator="arithmetic" k2="-1" k3="1"/>
<feColorMatrix type="matrix" values="0 0 0 0 0.196241 0 0 0 0 0.182049 0 0 0 0 0.891667 0 0 0 1 0"/>
<feBlend mode="normal" in2="shape" result="effect2_innerShadow_9127_17471"/>
</filter>
<filter id="filter2_di_9127_17471" x="-2" y="-4" width="83.5312" height="73" filterUnits="userSpaceOnUse" color-interpolation-filters="sRGB">
<feFlood flood-opacity="0" result="BackgroundImageFix"/>
<feColorMatrix in="SourceAlpha" type="matrix" values="0 0 0 0 0 0 0 0 0 0 0 0 0 0 0 0 0 0 127 0" result="hardAlpha"/>
<feOffset/>
<feGaussianBlur stdDeviation="3"/>
<feComposite in2="hardAlpha" operator="out"/>
<feColorMatrix type="matrix" values="0 0 0 0 1 0 0 0 0 0.00833333 0 0 0 0 0.603333 0 0 0 1 0"/>
<feBlend mode="normal" in2="BackgroundImageFix" result="effect1_dropShadow_9127_17471"/>
<feBlend mode="normal" in="SourceGraphic" in2="effect1_dropShadow_9127_17471" result="shape"/>
<feColorMatrix in="SourceAlpha" type="matrix" values="0 0 0 0 0 0 0 0 0 0 0 0 0 0 0 0 0 0 127 0" result="hardAlpha"/>
<feOffset dy="2"/>
<feGaussianBlur stdDeviation="1.5"/>
<feComposite in2="hardAlpha" operator="arithmetic" k2="-1" k3="1"/>
<feColorMatrix type="matrix" values="0 0 0 0 0.891667 0 0 0 0 0.182049 0 0 0 0 0.607819 0 0 0 1 0"/>
<feBlend mode="normal" in2="shape" result="effect2_innerShadow_9127_17471"/>
</filter>
<filter id="filter3_d_9127_17471" x="35.7031" y="22.416" width="43.8281" height="48.582" filterUnits="userSpaceOnUse" color-interpolation-filters="sRGB">
<feFlood flood-opacity="0" result="BackgroundImageFix"/>
<feColorMatrix in="SourceAlpha" type="matrix" values="0 0 0 0 0 0 0 0 0 0 0 0 0 0 0 0 0 0 127 0" result="hardAlpha"/>
<feOffset dy="4"/>
<feGaussianBlur stdDeviation="2"/>
<feComposite in2="hardAlpha" operator="out"/>
<feColorMatrix type="matrix" values="0 0 0 0 0 0 0 0 0 0 0 0 0 0 0 0 0 0 0.25 0"/>
<feBlend mode="normal" in2="BackgroundImageFix" result="effect1_dropShadow_9127_17471"/>
<feBlend mode="normal" in="SourceGraphic" in2="effect1_dropShadow_9127_17471" result="shape"/>
</filter>
<clipPath id="clip0_9127_17471">
<rect width="264" height="72" fill="white"/>
</clipPath>
</defs>
</svg>

<svg xmlns="http://www.w3.org/2000/svg" width="264" height="72" fill="none"><g clip-path="url(#a)"><g filter="url(#b)"><path fill="#fff" fill-rule="evenodd" d="M71.258 30.78h24.027l1.171-7.829L72.59 21.89zm52.975-7.104-22.713-.592q-.478.375-.976.928-.855.953-1.613 2.477-.76 1.529-1.227 3.813l-.079.476h25.546l1.064-7.102zm3.682.096 20.442.534-.971 6.473h-20.519zm48.216 1.257h-.001l.001-.002zm-.001 0-.861 5.749h-25.542l.078-.477q.309-1.428.932-2.859c.415-.953.884-1.808 1.404-2.573q.161-.235.327-.457zm3.635.096 24.131.63-.752 5.024h-25.542l.078-.477q.231-1.525.893-3.002.537-1.198 1.192-2.175m47.714 1.242-21.25-.555-.745 4.964h23.559c-.424-1.647-.948-3.119-1.564-4.41zm28.985.76c1.938.052 3.509 1.602 3.534 3.523v.131h-25.662l.632-4.215z" clip-rule="evenodd"/></g><g filter="url(#c)"><path fill="#fff" fill-rule="evenodd" d="m194.968 48.891 1.557-10.58v-.002h5.49l-2.49 16.873q-.197 1.142-.818 2.525c-.418.921-.896 1.764-1.443 2.526a13 13 0 0 1-1.674 1.955q-.857.811-1.518.81h-21.26l3.66-24.69h5.529l-2.376 16.016h12.227a6.3 6.3 0 0 0 1.187-.81q.487-.427.817-1.047a7.8 7.8 0 0 0 .586-1.479q.254-.856.526-2.097M86.635 38.311h-5.491l-2.375 16.111h-7.555l-1.284 8.58H90.45l1.285-8.58H84.26zm34.407.953q-.446-.856-.955-.954h-12.031l-1.285 8.676h8.373q.893 0 .971 1.336c.054.887.027 1.715-.078 2.476a61 61 0 0 0-.233.907 9 9 0 0 1-.39 1.19 3.9 3.9 0 0 1-.583 1.002q-.351.428-.857.429h-12.071c-.754-.57-1.24-1.177-1.46-1.812q-.332-.952-.137-2.859l1.674-11.343h-5.49l-1.907 12.965a66 66 0 0 0-.274 4.529q-.038 1.954.253 3.335.293 1.383.954 2.337c.442.634 1.038 1.145 1.792 1.523h17.755q.934 0 1.926-1.001t1.89-2.717q.895-1.717 1.616-3.907.72-2.194 1.072-4.672l.039-.192q.388-2.86.388-5.05 0-2.193-.253-3.768-.252-1.57-.701-2.432zm12.205-.954h5.489l-2.375 16.112h7.475l-1.285 8.58h-20.52l1.286-8.58h7.555zm20.831 0h-5.489l-3.659 24.691h25.503l1.284-8.675h-20.014zm72.238 8.198h3.35l.467-3.05a40 40 0 0 0 .077-2.477q-.001-.668-.019-1.335-.018-.668-.058-1.336h-17.755l-1.284 8.676h7.591q.702.192 1.421 1.956a16.7 16.7 0 0 1 1.032 3.763q.158.765.177 3.242.019 2.48-.216 7.054h6.115q.504-3.432.212-8.007t-1.108-8.484zM206.18 63.001h-5.492l3.661-24.69h5.489zm23.367 0h5.489l3.663-24.69h-5.491zm25.656 0h-5.492l3.663-24.69h5.489z" clip-rule="evenodd"/></g><g filter="url(#d)"><g filter="url(#e)"><path fill="#FC83D4" d="M75.526 38.308h-5.489l-.51 2.267a1.9 1.9 0 0 1-1.309 1.4l-6.372 1.94a5.11 5.11 0 0 0-3.581 4.14l-.165 1.12c-.364 1.274-.774 2.32-1.228 3.148a5.8 5.8 0 0 1-1.772 2h-6.228l2.376-17.412-3.325-2.722 13.022-11.773-21.242 11.496 6.055 4.396-3.66 24.69h14.717q.741 0 1.616-.762.88-.762 1.714-1.907c.56-.765 1.064-1.62 1.518-2.574q.682-1.43 1.033-2.859l.346-2.333c.552-3.727 1.916-3.48 6.247-5.057s4.648-1.166 6.24-9.198z"/></g><path fill="#FC83D4" d="m27.355 25.407 17.075-9.455-2.285-2.788 13.348 2.717.652-3.427 5.64 8.425 6.153-3.77-.711 4.356 4.275.268L74.5 7.5l-11.065 7.52L54.703 2l-2.394 9.127L32.41 7.16l5.387 7.311-24.312 12.836 11.138 1.95L6.38 46.13h8.539L4 63h26.068l1.048-7.05H14.919l8.913-14.984h-3.59l14.872-13.971z"/></g></g><defs><filter id="b" width="200.742" height="20.893" x="65.258" y="15.889" color-interpolation-filters="sRGB" filterUnits="userSpaceOnUse"><feFlood flood-opacity="0" result="BackgroundImageFix"/><feColorMatrix in="SourceAlpha" result="hardAlpha" values="0 0 0 0 0 0 0 0 0 0 0 0 0 0 0 0 0 0 127 0"/><feOffset/><feGaussianBlur stdDeviation="3"/><feComposite in2="hardAlpha" operator="out"/><feColorMatrix values="0 0 0 0 0.147167 0 0 0 0 0.00833333 0 0 0 0 1 0 0 0 1 0"/><feBlend in2="BackgroundImageFix" result="effect1_dropShadow_9127_17471"/><feBlend in="SourceGraphic" in2="effect1_dropShadow_9127_17471" result="shape"/><feColorMatrix in="SourceAlpha" result="hardAlpha" values="0 0 0 0 0 0 0 0 0 0 0 0 0 0 0 0 0 0 127 0"/><feOffset dy="2"/><feGaussianBlur stdDeviation="1.5"/><feComposite in2="hardAlpha" k2="-1" k3="1" operator="arithmetic"/><feColorMatrix values="0 0 0 0 0.196241 0 0 0 0 0.182049 0 0 0 0 0.891667 0 0 0 1 0"/><feBlend in2="shape" result="effect2_innerShadow_9127_17471"/></filter><filter id="c" width="200.93" height="36.693" x="63.93" y="32.309" color-interpolation-filters="sRGB" filterUnits="userSpaceOnUse"><feFlood flood-opacity="0" result="BackgroundImageFix"/><feColorMatrix in="SourceAlpha" result="hardAlpha" values="0 0 0 0 0 0 0 0 0 0 0 0 0 0 0 0 0 0 127 0"/><feOffset/><feGaussianBlur stdDeviation="3"/><feComposite in2="hardAlpha" operator="out"/><feColorMatrix values="0 0 0 0 0.147167 0 0 0 0 0.00833333 0 0 0 0 1 0 0 0 1 0"/><feBlend in2="BackgroundImageFix" result="effect1_dropShadow_9127_17471"/><feBlend in="SourceGraphic" in2="effect1_dropShadow_9127_17471" result="shape"/><feColorMatrix in="SourceAlpha" result="hardAlpha" values="0 0 0 0 0 0 0 0 0 0 0 0 0 0 0 0 0 0 127 0"/><feOffset dy="2"/><feGaussianBlur stdDeviation="1.5"/><feComposite in2="hardAlpha" k2="-1" k3="1" operator="arithmetic"/><feColorMatrix values="0 0 0 0 0.196241 0 0 0 0 0.182049 0 0 0 0 0.891667 0 0 0 1 0"/><feBlend in2="shape" result="effect2_innerShadow_9127_17471"/></filter><filter id="d" width="83.531" height="73" x="-2" y="-4" color-interpolation-filters="sRGB" filterUnits="userSpaceOnUse"><feFlood flood-opacity="0" result="BackgroundImageFix"/><feColorMatrix in="SourceAlpha" result="hardAlpha" values="0 0 0 0 0 0 0 0 0 0 0 0 0 0 0 0 0 0 127 0"/><feOffset/><feGaussianBlur stdDeviation="3"/><feComposite in2="hardAlpha" operator="out"/><feColorMatrix values="0 0 0 0 1 0 0 0 0 0.00833333 0 0 0 0 0.603333 0 0 0 1 0"/><feBlend in2="BackgroundImageFix" result="effect1_dropShadow_9127_17471"/><feBlend in="SourceGraphic" in2="effect1_dropShadow_9127_17471" result="shape"/><feColorMatrix in="SourceAlpha" result="hardAlpha" values="0 0 0 0 0 0 0 0 0 0 0 0 0 0 0 0 0 0 127 0"/><feOffset dy="2"/><feGaussianBlur stdDeviation="1.5"/><feComposite in2="hardAlpha" k2="-1" k3="1" operator="arithmetic"/><feColorMatrix values="0 0 0 0 0.891667 0 0 0 0 0.182049 0 0 0 0 0.607819 0 0 0 1 0"/><feBlend in2="shape" result="effect2_innerShadow_9127_17471"/></filter><filter id="e" width="43.828" height="48.582" x="35.703" y="22.416" color-interpolation-filters="sRGB" filterUnits="userSpaceOnUse"><feFlood flood-opacity="0" result="BackgroundImageFix"/><feColorMatrix in="SourceAlpha" result="hardAlpha" values="0 0 0 0 0 0 0 0 0 0 0 0 0 0 0 0 0 0 127 0"/><feOffset dy="4"/><feGaussianBlur stdDeviation="2"/><feComposite in2="hardAlpha" operator="out"/><feColorMatrix values="0 0 0 0 0 0 0 0 0 0 0 0 0 0 0 0 0 0 0.25 0"/><feBlend in2="BackgroundImageFix" result="effect1_dropShadow_9127_17471"/><feBlend in="SourceGraphic" in2="effect1_dropShadow_9127_17471" result="shape"/></filter><clipPath id="a"><path fill="#fff" d="M0 0h264v72H0z"/></clipPath></defs></svg>
